X: 10532
T: HORNPIPE
C: Arr. by W. B. Laybourn
R: hornpipe
B: K\"ohler's Violin Repository, v.1, 1885 p.53 #2
F: http://www.archive.org/details/klersviolinrepos01edin
Z: 2011 John Chambers <jc:trillian.mit.edu>
M: C|
L: 1/8
K: A
(uc>d) |\
(e>a)g>b (a>f)d>B | (A>G)A>B (c>A)E>D |\
(C>E)Ac (d>c)B>A | (G>B)e>g (f>d)e>c |
(e>a)g>b (a>f)d>B | (A>G)A>B (c>A)E>D |\
C>EA>c (3Bgf (3edB | A2c2 A2 :|
|: z2 |\
(B>c)B>A (G>B)e>f | (g>a)g>e (B>e)g>b | (a>g)f>a (g>f)e>g | fbeb dbcb |
(B>c)B>A (G>B)e>f | (g>a)g>e (B>e)g>b | a>fd>B (3dcB (3AGF | (3EGB (3egb e'2 :|

%%sep 2 1 500

